X:346
T: Miss Walker's Favorite
N: O'Farrell's Pocket Companion v.4 (Sky ed. p.150)
D: "O'Sullivan Meets O'Farrell" track 13A
N: "Farrell"
M: C
L: 1/8
Q: 340
R: reel
K: D
d2 Fd AdFd| GdFd edef| d2 Fd AdFd| gfea fd d2 :|
faab afdf| gbaf edeg| faab afdf| gfea fdd2|
faab afdf| gbaf edeg| gefd edBA| Bcde fdd2 ||
